hoodie_driver/public/fire_icon.svg

<svg width="21" height="21" viewBox="0 0 21 21" fill="none" xmlns="http://www.w3.org/2000/svg">
<g clip-path="url(#clip0_5282_41415)">
<path d="M6.44568 18.2737C5.52769 17.2305 4.60973 16.1457 4.02554 14.8521C3.44139 13.4752 3.27447 11.8896 3.56657 10.3874C3.85866 8.8853 4.52626 7.4666 5.48599 6.25655C5.40255 7.29972 5.77808 8.38459 6.48742 9.1774C6.07014 7.17454 6.73777 5.00476 8.073 3.41918C9.40823 1.8336 11.2442 0.790388 13.1636 0.0810547C12.2039 1.08248 12.0787 2.66807 12.4543 4.00333C12.8298 5.33856 13.6226 6.50691 14.3319 7.71696C15.0413 8.927 15.7089 10.1788 15.7506 11.5558C16.1262 10.8464 16.5435 10.1371 16.7938 9.34428C17.0442 8.55147 17.1693 7.71696 16.9607 6.92414C17.7118 7.84213 18.1291 8.76009 18.3377 9.92843C18.5463 11.0968 18.5046 12.3068 18.3794 13.4752C18.2125 14.7687 17.8787 16.1039 17.1694 17.1888C16.3349 18.4823 14.9996 19.4003 13.5392 19.901C10.9521 20.36 8.4068 19.9845 6.44568 18.2737Z" fill="#F3705A"/>
<path d="M9.6167 19.818C13.0382 21.1533 16.418 17.1058 14.5404 13.9764C14.5404 13.9346 14.4986 13.9346 14.4986 13.8929C14.6655 15.6037 14.2483 16.8555 13.4555 17.5649C13.8727 16.5634 13.5806 15.3951 13.0799 14.3937C12.5792 13.434 11.8699 12.5577 11.3274 11.6397C10.785 10.68 10.3677 9.59512 10.6181 8.51025C9.61666 9.26133 8.90732 10.3879 8.61523 11.598C8.32313 12.808 8.49005 14.1433 9.0325 15.2699C8.40661 14.8109 7.94763 14.0599 7.90589 13.267C7.23826 14.0599 6.82102 15.103 6.86272 16.1462C6.86276 17.7735 8.15625 19.2339 9.6167 19.818Z" fill="#FFD15C"/>
</g>
<defs>
<clipPath id="clip0_5282_41415">
<rect width="20" height="20" fill="white" transform="translate(0.954102 0.081543)"/>
</clipPath>
</defs>
</svg>

<svg xmlns="http://www.w3.org/2000/svg" width="21" height="21" fill="none" xmlns:v="https://vecta.io/nano"><g clip-path="url(#A)"><path d="M6.446 18.274c-.918-1.043-1.836-2.128-2.42-3.422-.584-1.377-.751-2.963-.459-4.465a9.63 9.63 0 0 1 1.919-4.131 3.98 3.98 0 0 0 1.001 2.921c-.417-2.003.25-4.173 1.586-5.758S11.244.79 13.164.081c-.96 1.001-1.085 2.587-.709 3.922s1.168 2.504 1.878 3.714 1.377 2.462 1.419 3.839c.376-.709.793-1.419 1.043-2.212s.375-1.627.167-2.42c.751.918 1.168 1.836 1.377 3.004s.167 2.378.042 3.547c-.167 1.294-.501 2.629-1.21 3.714-.834 1.293-2.17 2.212-3.63 2.712-2.587.459-5.132.084-7.094-1.627z" fill="#f3705a"/><path d="M9.617 19.818c3.422 1.335 6.801-2.712 4.924-5.842 0-.042-.042-.042-.042-.084.167 1.711-.25 2.963-1.043 3.672.417-1.001.125-2.17-.376-3.171-.501-.96-1.21-1.836-1.752-2.754-.542-.96-.96-2.045-.709-3.129-1.001.751-1.711 1.878-2.003 3.088s-.125 2.545.417 3.672c-.626-.459-1.085-1.21-1.127-2.003-.668.793-1.085 1.836-1.043 2.879 0 1.627 1.294 3.088 2.754 3.672z" fill="#ffd15c"/></g><defs><clipPath id="A"><path fill="#fff" transform="translate(.954 .082)" d="M0 0h20v20H0z"/></clipPath></defs></svg>
